blockchains/ethereum/assets/0x0bc529c00C6401aEF6D220BE8C6Ea1667F6Ad93e/logo.svg

<svg width="250" height="250" viewBox="0 0 250 250" fill="none" xmlns="http://www.w3.org/2000/svg">
<g clip-path="url(#clip0_33_5948)">
<path fill-rule="evenodd" clip-rule="evenodd" d="M125 0C194.025 0 250 55.975 250 125C250 194.025 194.025 250 125 250C55.975 250 0 194.025 0 125C0 55.975 55.975 0 125 0Z" fill="#006AE3"/>
<path d="M119.85 177.703V73.7031H131.175V177.703H119.85Z" fill="white"/>
<path d="M177.5 108.349L142.525 117.624L134.725 81.3241L145.125 78.9741L149.225 96.1741C149.225 96.1741 158.675 80.6741 146.075 64.6241C138.65 56.3741 135.125 56.0241 126.8 54.7241C119.475 53.6741 102.45 56.1491 97.3749 76.0241C95.2249 88.8241 97.6499 98.2991 114.15 110.699L113.225 124.499C113.225 124.499 94.7999 111.524 90.0499 102.424C86.3749 95.2241 80.0749 80.9991 91.4499 61.1991C97.5749 51.2991 109.65 41.7991 130.925 42.7991C141.625 43.2491 167.75 56.3241 163.7 86.8741C163 92.5991 160.025 100.224 160.025 100.224L174.375 97.0241L177.5 108.349Z" fill="white"/>
<path d="M157.525 189.726C151.125 199.451 138.8 208.626 117.575 207.076C106.875 206.351 81.125 192.576 85.975 162.151C86.825 156.451 90 148.926 90 148.926L75.575 151.726L72.75 140.352L107.975 132.002L114.825 168.501L104.35 170.576L100.7 153.251C100.7 153.251 90.85 168.476 103 184.876C110.2 193.326 113.7 193.751 122.025 195.276C129.3 196.526 146.4 194.476 152 174.751C154.475 162.026 152.3 152.476 136.15 139.627L137.45 125.852C137.45 125.852 155.525 139.302 160.025 148.526C163.475 155.851 169.4 170.251 157.525 189.726Z" fill="white"/>
</g>
<defs>
<clipPath id="clip0_33_5948">
<rect width="250" height="250" fill="white"/>
</clipPath>
</defs>
</svg>

<svg fill="none" height="250" viewBox="0 0 250 250" width="250" xmlns="http://www.w3.org/2000/svg" xmlns:xlink="http://www.w3.org/1999/xlink"><clipPath id="a"><path d="m0 0h250v250h-250z"/></clipPath><g clip-path="url(#a)"><path clip-rule="evenodd" d="m125 0c69.025 0 125 55.975 125 125s-55.975 125-125 125-125-55.975-125-125 55.975-125 125-125z" fill="#006ae3" fill-rule="evenodd"/><g fill="#fff"><path d="m119.85 177.703v-103.9999h11.325v103.9999z"/><path d="m177.5 108.349-34.975 9.275-7.8-36.2999 10.4-2.35 4.1 17.2s9.45-15.5-3.15-31.55c-7.425-8.25-10.95-8.6-19.275-9.9-7.325-1.05-24.35 1.425-29.4251 21.3-2.15 12.8.275 22.275 16.7751 34.6749l-.925 13.8s-18.4251-12.975-23.1751-22.075c-3.675-7.1999-9.975-21.4249 1.4-41.2249 6.125-9.9 18.2001-19.4 39.4751-18.4 10.7.45 36.825 13.525 32.775 44.075-.7 5.725-3.675 13.3499-3.675 13.3499l14.35-3.1999z"/><path d="m157.525 189.726c-6.4 9.725-18.725 18.9-39.95 17.35-10.7-.725-36.45-14.5-31.6-44.925.85-5.7 4.025-13.225 4.025-13.225l-14.425 2.8-2.825-11.374 35.225-8.35 6.85 36.499-10.475 2.075-3.65-17.325s-9.85 15.225 2.3 31.625c7.2 8.45 10.7 8.875 19.025 10.4 7.275 1.25 24.375-.8 29.975-20.525 2.475-12.725.3-22.275-15.85-35.124l1.3-13.775s18.075 13.45 22.575 22.674c3.45 7.325 9.375 21.725-2.5 41.2z"/></g></g></svg>
